style-guide/assets/xd-icons-pages.svg

<?xml version="1.0" encoding="UTF-8"?>
<svg width="24px" height="24px" viewBox="0 0 24 24" version="1.1" xmlns="http://www.w3.org/2000/svg" xmlns:xlink="http://www.w3.org/1999/xlink">
    <!-- Generator: Sketch 51.3 (57544) - http://www.bohemiancoding.com/sketch -->
    <title>documents</title>
    <desc>Created with Sketch.</desc>
    <defs>
        <path d="M4,22 L16,22 L16,7 L4,7 L4,22 Z M17,5 L3,5 C2.447,5 2,5.447 2,6 L2,23 C2,23.553 2.447,24 3,24 L17,24 C17.553,24 18,23.553 18,23 L18,6 C18,5.447 17.553,5 17,5 Z M22,0 L8,0 C7.447,0 7,0.447 7,1 C7,1.553 7.447,2 8,2 L21,2 L21,18 C21,18.553 21.447,19 22,19 C22.553,19 23,18.553 23,18 L23,1 C23,0.447 22.553,0 22,0" id="path-1"></path>
    </defs>
    <g id="documents" stroke="none" stroke-width="1" fill="none" fill-rule="evenodd">
        <mask id="mask-2" fill="white">
            <use xlink:href="#path-1"></use>
        </mask>
        <use id="icons/24px/Documents" fill="#000000" xlink:href="#path-1"></use>
    </g>
</svg>

<svg viewBox="0 0 24 24" xmlns="http://www.w3.org/2000/svg" xmlns:xlink="http://www.w3.org/1999/xlink">
  <path d="M4 22h12V7H4v15zM17 5H3a1 1 0 0 0-1 1v17a1 1 0 0 0 1 1h14a1 1 0 0 0 1-1V6a1 1 0 0 0-1-1zm5-5H8a1 1 0 1 0 0 2h13v16a1 1 0 1 0 2 0V1a1 1 0 0 0-1-1"/>
</svg>
